X:1
T:Papa, Are You Ready?
T:Papa, Are You Ready?
T:William Evander Penn
T:Eben Eugene Rexford, 1888
T:Public Domain Courtesy of the Cyber Hymnal™
T:Public Domain Courtesy of the Cyber Hymnal™
T:Public Domain Courtesy of the Cyber Hymnal™
C:William Evander Penn
Z:Public Domain
Z:Courtesy of the Cyber Hymnal™
%%score ( 1 2 ) ( 3 4 )
L:1/8
Q:1/4=102
M:4/4
K:G
V:1 treble 
V:2 treble 
V:3 bass 
V:4 bass 
V:1
|: [B,G][CA] | [DB]2 [Ec]2 [DB]2 [DA]2 | [DB]2 [B,G]4 [DG][DG] | [DA]2 [DA]2 [DA]2 [DG]2 | %4
w: 1.~Wil- lie|brought his lit- tle|Bi- ble, With a|grave and thought- ful|
w: 2.~When I|told him of the|mean- ing Of the|words that he had|
w: 3.~“If you|can’t tell when He’s|com- ing, I should|think you’d want to|
w: 4.~Then I|clasped my dar- ling|clos- er, Smit- ten|with a sud- den|
 [DB]6 [DB][Dc] | [Gd]2 [Gd]2 [GB]2 [DG]2 | [EA]2 [Ec]4 [EG][EA] | [DB]2 [DB]2 [FA]2 [FA]2 | %8
w: look In the|eyes he lift- ed|to me From the|pag- es of the|
w: read, He was|si- lent for a|mo- ment, Then looked|up at me and|
w: be Al- ways|rea- dy,” said my|Wil- lie, Look- ing|grave- ly up at|
w: fear, For the|words that he had|spok- en Seemed to|bring life’s end so|
 G6 z2 | [B,D]2 [B,D]2 [CE]2 [EG]2 | [EG]3 [CE] [CE] [B,D]2 z | [DG]3 [DA] [DB][DB][DA][EG] | %12
w: book;|“Tell me what this|means, dear Pa- pa?”|And he read me from God’s|
w: said:|“Tell me, are you|rea- dy, Pa- pa?”|O the child could lit- tle|
w: me.|“Should He come to-|night and call you,|You would have to say to|
w: near,|And my heart cried,|“O my Mas- ter,|There shall be no more de-|
 [Fd]6 z2 | [Gd]2 [Gd]2 [Ge]2 [Ge]2 | [Fd]3 [FB] [EA] [EG]2 z | [DF][CE][B,D][B,G] [DB]2 [CA]2 | %16
w: word|What it says of|be- ing rea- dy|For the com- ing of the|
w: know|How the sim- ple|ques- tion thrilled me,|As in shame I an- swered,|
w: Him:|‘I’m not rea- dy,’|O dear Pa- pa!”|And his eyes with tears were|
w: lay,|Make me rea- dy|for Thy com- ing,|Be that com- ing when it|
 [B,G]6 ||"^Refrain" [DG][DA] | [GB]<[Bd] [Bd][ce] [Bd]<[GB] GG | [Ec][Ec][Ec][Ge] [Gd]2 D[EG] | %20
w: Lord.||||
w: “No!”||||
w: dim.||||
w: may!”||||
 [GB][Bd][Bd][ce] [Bd][GB][DG][DA] | [DB]<[DB] [DA][EG] [FA]2 z2 |1,2,3 [B,D]2 [B,D]2 [CE]2 [EG]2 | %23
w: |||
w: |||
w: |||
w: |||
 [EG]3 [CE] [CE] [B,D]2 z | [G,B,]2 [A,C]2 [B,D] [B,G]3 | [DG]2 [DB]2 [DA]2 [B,G][CA] | %26
w: |||
w: |||
w: |||
w: |||
 [DB]2 [DB]2 [DB]2 [^C^A]2 | [DB] [Gd]3 [B,D]2 [B,D]2 | [CE]3 [EG] [EG]2 [EG]2 | !fermata![DG]6 :|4 %30
w: ||||
w: ||||
w: ||||
w: ||||
 !fermata![Fd]>[Fc] || [GB]<[DB] [DB][CA] [CA]<[B,G] [B,D][B,D] | %32
w: ||
w: ||
w: ||
w: ||
 [CE][EG][DG][FA] [GB]2 !fermata!B>A | GGAG ED!fermata![G,B,][A,C] | [B,D]<[B,G] [DG][DA] [DG]2 |] %35
w: |||
w: |||
w: |||
w: |||
V:2
|: x2 | x8 | x8 | x8 | x8 | x8 | x8 | x8 | G6 x2 | x8 | x8 | x8 | x8 | x8 | x8 | x8 | x6 || x2 | %18
 x6 GG | x6 D x | x8 | x8 |1,2,3 x8 | x8 | x8 | x8 | x8 | x8 | x8 | x6 :|4 x2 || x8 | x6 B>A | %33
 GGAG ED x2 | x6 |] %35
V:3
|: G,G, | G,2 G,2 G,2 [D,F,]2 | [G,,G,]2 [G,,G,]4 [B,,G,][B,,G,] | %3
w: ~ ~|~ ~ ~ ~|~ ~ ~ ~|
 [D,F,]2 [D,F,]2 [D,F,]2 [G,B,]2 | G,6 G,[G,A,] | [G,B,]2 [G,B,]2 [G,D]2 [G,B,]2 | %6
w: ~ ~ ~ ~|~ ~ ~|~ ~ ~ ~|
 [C,C]2 [C,G,]4 [C,C][C,C] | [D,G,]2 [D,G,]2 [D,A,]2 [D,C]2 | [G,,B,]6 z2 | %9
w: ~ ~ ~ ~|~ ~ ~ ~|~|
 [G,,G,]2 [G,,G,]2 [C,G,]2 [C,C]2 | [C,C]3 [C,G,] [G,,G,] [G,,G,]2 z | %11
w: ~ ~ ~ ~|~ ~ ~ ~|
 [B,,G,]3 [D,F,] G,G,[F,A,][E,A,] | [D,A,]6 z2 | [G,B,]2 [G,B,]2 [C,C]2 [C,C]2 | %14
w: ~ ~ ~ ~ ~ ~|~|~ ~ ~ ~|
 [D,A,]3 [^D,B,] [E,B,] [E,B,]2 z | [C,C][C,G,][D,G,][D,G,] [D,G,]2 [D,F,]2 | [G,,G,]6 || %17
w: ~ ~ ~ ~|~ ~ ~ ~ ~ ~|~|
 [G,B,][G,C] | [G,D]<G, G,G, G,<G, [E,B,][E,B,] | [C,C][C,C][C,C][C,C] [G,,B,]2 [G,B,][G,C] | %20
w: Are you|rea- dy for His com- ing, Be that|com- ing soon or late? Will you|
 [G,D]G,G,G, G,G,[B,,G,][D,F,] | G,<G, [F,A,][E,A,] D,2 z2 |1,2,3 %22
w: go and meet Him glad- ly When he|knock- eth at the gate?|
 [G,,G,]2 [G,,G,]2 [C,G,]2 [C,C]2 | [C,C]3 [C,G,] [G,,G,] [G,,G,]2 z | %24
w: No! I can- not|meet Him glad- ly,|
 [G,,D,]2 [G,,D,]2 [G,,G,] [G,,G,]3 | [B,,G,]2 [G,,G,]2 [D,F,]2 [D,G,][D,G,] | G,2 G,2 G,2 G,2 | %27
w: I’m not rea- dy|now, I know, And it|may be that His|
 G, [G,B,]3 G,2 G,2 | [C,G,]3 [C,C] [C,C]2 [C,C]2 | !fermata![G,,B,]6 :|4 !fermata![D,A,]>[D,D] || %31
w: foot- steps Ev- en|now are at the|door.|Yes, I’m|
 [G,D]<[G,D] [D,D][D,D] [G,,D]<[G,,D] [G,,D][G,,D] | [C,C][C,C][D,B,][D,A,] G,2 !fermata!B,>A, | %33
w: rea- dy now to meet Him, Be that|com- ing soon or late; I can|
 G,G,A,G, E,D,!fermata!D,D, | [D,G,]<[D,G,] [D,B,][D,C] [G,,B,]2 |] %35
w: run and meet Him glad- ly When He|knock- eth at the gate!|
V:4
|: G,G, | G,2 G,2 G,2 x2 | x8 | x8 | G,6 G, x | x8 | x8 | x8 | x8 | x8 | x8 | x4 G,G, x2 | x8 | %13
 x8 | x8 | x8 | x6 || x2 | x/ G,3/2 G,G, G,<G, x2 | x8 | x G,G,G, G,G, x2 | %21
 G,<G, x/ D,2 x7/2 |1,2,3 x8 | x8 | x8 | x8 | G,2 G,2 G,2 G,2 | G, x2 G,2 G,2 x | x8 | x6 :|4 x2 || %31
 x8 | x4 G,2 B,>A, | G,G,A,G, E,D,D,D, | x6 |] %35

